;FLAVOR:Marlin
;TIME:2701
;Filament used: 0m, 1.46841m
;Layer height: 0.4
;MINX:328.643
;MINY:211.016
;MINZ:0.2
;MAXX:404.221
;MAXY:286.594
;MAXZ:5.8
;Generated with StratosEngine 1.5.2
T1
M82 ;absolute extrusion mode
;Machine Model: Sigma D25 
;Materials used:  T1 PLA 
;Extruders used:  T1 0.4 
M141 S40 	;Set chamber temperature 
M140 S60 	;Heat build surface
M104 T1 S205	;Heat extruder 1
M190 S60 	;Wait until bed temperature reached 
M109 T1 S205	;Heat extruder 1 and wait
G21 		;metric values 
G90 		;absolute positioning 
M204 S2500 	;set default acceleration 
M205 X12.5 Y12.5 ;set default jerk 
M107 		;start with the fan off 
G28 X0 Y0 	;move X/Y to min endstops 
G28 Z0 		;move Z to min endstops 
G1 Z5 F200 	;safety Z axis movement

T1
G92 E0 		;set zero the extruded length 
G1 E10 F30
G92 E0 
G4 S2 		;stabilize hotend 
G1 E-0.5 F1000 
G92 E0

G4 P1
G4 P2
G4 P3

M141 S40
G92 E0
;LAYER_COUNT:15
;LAYER:0
M107
M204 S456
M205 X9.38 Y9.38
G1 F600 Z1
G0 F6000 X330.618 Y260.87 Z1
M204 S1425
;TYPE:SKIRT
G1 F600 Z0.2
G1 F1050 E0
G1 F1200 X330.366 Y260.092 E0.01026
G1 X329.554 Y257.061 E0.04961
G1 X329.384 Y256.264 E0.05983
G1 X328.892 Y253.161 E0.09922
G1 X328.807 Y252.348 E0.10947
G1 X328.643 Y249.214 E0.14883
G1 X328.643 Y248.399 E0.15905
G1 X328.807 Y245.263 E0.19843
G1 X328.892 Y244.449 E0.20869
G1 X329.384 Y241.346 E0.24809
G1 X329.554 Y240.549 E0.25831
G1 X330.366 Y237.517 E0.29768
G1 X330.619 Y236.738 E0.30795
G1 X331.745 Y233.807 E0.34732
G1 X332.075 Y233.064 E0.35752
G1 X333.5 Y230.266 E0.39689
G1 X333.91 Y229.557 E0.40716
G1 X335.621 Y226.923 E0.44655
G1 X336.099 Y226.264 E0.45676
G1 X338.075 Y223.823 E0.49614
G1 X338.624 Y223.214 E0.50643
G1 X340.844 Y220.995 E0.54579
G1 X341.449 Y220.451 E0.55599
G1 X343.891 Y218.473 E0.5954
G1 X344.551 Y217.993 E0.60564
G1 X347.182 Y216.284 E0.64498
G1 X347.891 Y215.874 E0.65525
G1 X350.689 Y214.449 E0.69463
G1 X351.432 Y214.119 E0.70482
G1 X354.366 Y212.992 E0.74424
G1 X355.142 Y212.739 E0.75447
G1 X358.173 Y211.926 E0.79382
G1 X358.975 Y211.756 E0.80411
G1 X362.078 Y211.265 E0.8435
G1 X362.89 Y211.18 E0.85374
G1 X366.025 Y211.016 E0.89311
G1 X366.839 Y211.016 E0.90332
G1 X369.974 Y211.18 E0.94268
G1 X370.786 Y211.265 E0.95292
G1 X373.889 Y211.756 E0.99232
G1 X374.69 Y211.926 E1.00259
G1 X377.722 Y212.739 E1.04195
G1 X378.5 Y212.992 E1.05221
G1 X381.433 Y214.119 E1.09162
G1 X382.175 Y214.45 E1.1018
G1 X384.971 Y215.874 E1.14115
G1 X385.678 Y216.282 E1.15139
G1 X388.312 Y217.992 E1.19077
G1 X388.974 Y218.473 E1.20103
G1 X391.415 Y220.45 E1.24042
G1 X392.023 Y220.997 E1.25068
G1 X394.242 Y223.217 E1.29004
G1 X394.785 Y223.82 E1.30022
G1 X396.763 Y226.261 E1.33962
G1 X397.245 Y226.924 E1.3499
G1 X398.954 Y229.556 E1.38925
G1 X399.363 Y230.264 E1.3995
G1 X400.788 Y233.062 E1.43888
G1 X401.118 Y233.804 E1.44906
G1 X402.245 Y236.737 E1.48847
G1 X402.498 Y237.515 E1.49873
G1 X403.311 Y240.547 E1.53809
G1 X403.481 Y241.347 E1.54835
G1 X403.972 Y244.448 E1.58772
G1 X404.057 Y245.261 E1.59797
G1 X404.221 Y248.397 E1.63735
G1 X404.221 Y249.211 E1.64756
G1 X404.057 Y252.347 E1.68694
G1 X403.972 Y253.159 E1.69718
G1 X403.481 Y256.262 E1.73658
G1 X403.311 Y257.064 E1.74686
G1 X402.498 Y260.095 E1.78621
G1 X402.246 Y260.87 E1.79643
G1 X401.12 Y263.802 E1.83582
G1 X400.789 Y264.546 E1.84603
G1 X399.364 Y267.344 E1.8854
G1 X398.955 Y268.052 E1.89566
G1 X397.245 Y270.685 E1.93503
G1 X396.765 Y271.345 E1.94526
G1 X394.788 Y273.787 E1.98466
G1 X394.24 Y274.396 E1.99494
G1 X392.02 Y276.615 E2.0343
G1 X391.415 Y277.159 E2.0445
G1 X388.974 Y279.136 E2.0839
G1 X388.315 Y279.616 E2.09412
G1 X385.683 Y281.326 E2.13348
G1 X384.973 Y281.736 E2.14376
G1 X382.175 Y283.161 E2.18314
G1 X381.433 Y283.491 E2.19332
G1 X378.5 Y284.618 E2.23272
G1 X377.72 Y284.871 E2.24301
G1 X374.688 Y285.683 E2.28237
G1 X373.891 Y285.853 E2.29259
G1 X370.788 Y286.345 E2.33199
G1 X369.974 Y286.43 E2.34225
G1 X366.839 Y286.594 E2.38162
G1 X366.025 Y286.594 E2.39183
G1 X362.89 Y286.43 E2.43119
G1 X362.076 Y286.345 E2.44146
G1 X358.973 Y285.853 E2.48086
G1 X358.176 Y285.683 E2.49108
G1 X355.145 Y284.871 E2.53043
G1 X354.366 Y284.618 E2.5407
G1 X351.432 Y283.491 E2.58011
G1 X350.689 Y283.161 E2.59031
G1 X347.891 Y281.736 E2.62968
G1 X347.18 Y281.325 E2.63998
G1 X344.549 Y279.615 E2.67933
G1 X343.894 Y279.139 E2.68949
G1 X341.452 Y277.163 E2.72888
G1 X340.841 Y276.613 E2.73919
G1 X338.622 Y274.393 E2.77855
G1 X338.077 Y273.787 E2.78877
G1 X336.1 Y271.345 E2.82817
G1 X335.622 Y270.687 E2.83837
G1 X333.911 Y268.054 E2.87775
G1 X333.5 Y267.344 E2.88804
G1 X332.075 Y264.546 E2.92741
G1 X331.744 Y263.802 E2.93763
G1 X330.618 Y260.87 E2.97701
M204 S456
G0 F6000 X330.992 Y260.727
M204 S1425
G1 F1200 X330.752 Y259.989 E2.98675
G1 X329.94 Y256.958 E3.0261
G1 X329.779 Y256.202 E3.03579
G1 X329.287 Y253.099 E3.07519
G1 X329.206 Y252.327 E3.08492
G1 X329.042 Y249.193 E3.12428
G1 X329.042 Y248.42 E3.13397
G1 X329.206 Y245.284 E3.17335
G1 X329.287 Y244.511 E3.1831
G1 X329.779 Y241.408 E3.2225
G1 X329.94 Y240.653 E3.23218
G1 X330.752 Y237.621 E3.27154
G1 X330.992 Y236.881 E3.2813
G1 X332.118 Y233.95 E3.32067
G1 X332.432 Y233.246 E3.33034
G1 X333.857 Y230.448 E3.36971
G1 X334.245 Y229.775 E3.37946
G1 X335.956 Y227.141 E3.41884
G1 X336.41 Y226.516 E3.42853
G1 X338.386 Y224.075 E3.46791
G1 X338.907 Y223.497 E3.47767
G1 X341.127 Y221.278 E3.51704
G1 X341.7 Y220.762 E3.52671
G1 X344.142 Y218.784 E3.56611
G1 X344.769 Y218.328 E3.57584
G1 X347.4 Y216.619 E3.61518
G1 X348.073 Y216.231 E3.62492
G1 X350.871 Y214.806 E3.6643
G1 X351.576 Y214.492 E3.67398
G1 X354.51 Y213.365 E3.71339
G1 X355.246 Y213.126 E3.7231
G1 X358.277 Y212.313 E3.76245
G1 X359.037 Y212.151 E3.77219
G1 X362.14 Y211.66 E3.81159
G1 X362.91 Y211.579 E3.8213
G1 X366.045 Y211.415 E3.86067
G1 X366.819 Y211.415 E3.87037
G1 X369.954 Y211.579 E3.90974
G1 X370.724 Y211.66 E3.91945
G1 X373.827 Y212.151 E3.95885
G1 X374.587 Y212.312 E3.96859
G1 X377.619 Y213.125 E4.00796
G1 X378.356 Y213.365 E4.01768
G1 X381.289 Y214.492 E4.05708
G1 X381.993 Y214.806 E4.06675
G1 X384.789 Y216.23 E4.10609
G1 X385.46 Y216.617 E4.11581
G1 X388.094 Y218.327 E4.15519
G1 X388.722 Y218.783 E4.16492
G1 X391.163 Y220.76 E4.20431
G1 X391.74 Y221.28 E4.21405
G1 X393.959 Y223.5 E4.25342
G1 X394.474 Y224.072 E4.26307
G1 X396.452 Y226.513 E4.30247
G1 X396.909 Y227.142 E4.31222
G1 X398.618 Y229.774 E4.35157
G1 X399.006 Y230.446 E4.3613
G1 X400.431 Y233.244 E4.40068
G1 X400.745 Y233.948 E4.41035
G1 X401.872 Y236.881 E4.44975
G1 X402.112 Y237.618 E4.45947
G1 X402.925 Y240.65 E4.49883
G1 X403.086 Y241.41 E4.50858
G1 X403.577 Y244.511 E4.54795
G1 X403.658 Y245.282 E4.55767
G1 X403.822 Y248.418 E4.59705
G1 X403.822 Y249.19 E4.60673
G1 X403.658 Y252.326 E4.64611
G1 X403.577 Y253.097 E4.65583
G1 X403.086 Y256.2 E4.69523
G1 X402.924 Y256.96 E4.70498
G1 X402.111 Y259.991 E4.74433
G1 X401.872 Y260.727 E4.75403
G1 X400.746 Y263.659 E4.79342
G1 X400.432 Y264.364 E4.8031
G1 X399.007 Y267.162 E4.84247
G1 X398.619 Y267.835 E4.85222
G1 X396.909 Y270.468 E4.89159
G1 X396.454 Y271.093 E4.90128
G1 X394.477 Y273.535 E4.94068
G1 X393.957 Y274.113 E4.95043
G1 X391.737 Y276.332 E4.9898
G1 X391.163 Y276.849 E4.99948
G1 X388.722 Y278.826 E5.03887
G1 X388.097 Y279.28 E5.04856
G1 X385.465 Y280.99 E5.08792
G1 X384.791 Y281.379 E5.09768
G1 X381.993 Y282.804 E5.13706
G1 X381.289 Y283.118 E5.14672
G1 X378.356 Y284.245 E5.18613
G1 X377.616 Y284.485 E5.19588
G1 X374.584 Y285.297 E5.23525
G1 X373.829 Y285.458 E5.24493
G1 X370.726 Y285.95 E5.28432
G1 X369.954 Y286.031 E5.29406
G1 X366.819 Y286.195 E5.33343
G1 X366.045 Y286.195 E5.34313
G1 X362.91 Y286.031 E5.3825
G1 X362.138 Y285.95 E5.39224
G1 X359.035 Y285.458 E5.43163
G1 X358.279 Y285.297 E5.44133
G1 X355.248 Y284.485 E5.48068
G1 X354.51 Y284.245 E5.49041
G1 X351.576 Y283.118 E5.52982
G1 X350.871 Y282.804 E5.5395
G1 X348.073 Y281.379 E5.57888
G1 X347.398 Y280.99 E5.58865
G1 X344.767 Y279.28 E5.628
G1 X344.145 Y278.828 E5.63764
G1 X341.703 Y276.852 E5.67703
G1 X341.124 Y276.33 E5.68681
G1 X338.905 Y274.11 E5.72617
G1 X338.388 Y273.535 E5.73587
G1 X336.411 Y271.093 E5.77527
G1 X335.957 Y270.469 E5.78495
G1 X334.246 Y267.836 E5.82433
G1 X333.857 Y267.162 E5.83408
G1 X332.432 Y264.364 E5.87346
G1 X332.118 Y263.659 E5.88314
G1 X330.992 Y260.727 E5.92253
M204 S456
G0 F6000 X331.365 Y260.584
M204 S1425
G1 F1200 X331.138 Y259.885 E5.93174
G1 X330.326 Y256.854 E5.97109
G1 X330.174 Y256.139 E5.98026
G1 X329.682 Y253.036 E6.01966
G1 X329.606 Y252.306 E6.02886
G1 X329.442 Y249.172 E6.06822
G1 X329.442 Y248.44 E6.0774
G1 X329.606 Y245.304 E6.11678
G1 X329.682 Y244.574 E6.12598
G1 X330.174 Y241.471 E6.16538
G1 X330.326 Y240.756 E6.17455
G1 X331.138 Y237.724 E6.21391
G1 X331.366 Y237.025 E6.22313
G1 X332.492 Y234.094 E6.2625
G1 X332.788 Y233.427 E6.27166
G1 X334.213 Y230.629 E6.31103
G1 X334.581 Y229.993 E6.32025
G1 X336.292 Y227.359 E6.35963
G1 X336.721 Y226.768 E6.36879
G1 X338.697 Y224.327 E6.40818
G1 X339.189 Y223.78 E6.4174
G1 X341.409 Y221.561 E6.45676
G1 X341.952 Y221.073 E6.46592
G1 X344.394 Y219.095 E6.50533
G1 X344.987 Y218.664 E6.51452
G1 X347.618 Y216.955 E6.55387
G1 X348.254 Y216.587 E6.56308
G1 X351.052 Y215.162 E6.60246
G1 X351.719 Y214.865 E6.61161
G1 X354.653 Y213.738 E6.65103
G1 X355.35 Y213.512 E6.66022
G1 X358.381 Y212.699 E6.69957
G1 X359.1 Y212.546 E6.70879
G1 X362.203 Y212.055 E6.74818
G1 X362.931 Y211.979 E6.75736
G1 X366.066 Y211.815 E6.79673
G1 X366.798 Y211.815 E6.80591
G1 X369.933 Y211.979 E6.84528
G1 X370.661 Y212.055 E6.85446
G1 X373.764 Y212.546 E6.89385
G1 X374.483 Y212.699 E6.90307
G1 X377.515 Y213.512 E6.94244
G1 X378.213 Y213.739 E6.95164
G1 X381.146 Y214.866 E6.99105
G1 X381.812 Y215.162 E7.00019
G1 X384.608 Y216.586 E7.03953
G1 X385.243 Y216.953 E7.04873
G1 X387.877 Y218.663 E7.08811
G1 X388.471 Y219.094 E7.09732
G1 X390.912 Y221.071 E7.13671
G1 X391.457 Y221.562 E7.14591
G1 X393.676 Y223.782 E7.18527
G1 X394.164 Y224.324 E7.19442
G1 X396.142 Y226.765 E7.23381
G1 X396.574 Y227.36 E7.24304
G1 X398.283 Y229.992 E7.28239
G1 X398.65 Y230.627 E7.29159
G1 X400.075 Y233.425 E7.33096
G1 X400.371 Y234.091 E7.3401
G1 X401.498 Y237.024 E7.37951
G1 X401.725 Y237.722 E7.38871
G1 X402.538 Y240.754 E7.42808
G1 X402.691 Y241.472 E7.43728
G1 X403.182 Y244.573 E7.47665
G1 X403.258 Y245.302 E7.48585
G1 X403.422 Y248.438 E7.52523
G1 X403.422 Y249.17 E7.53441
G1 X403.258 Y252.306 E7.57379
G1 X403.182 Y253.034 E7.58296
G1 X402.691 Y256.137 E7.62236
G1 X402.538 Y256.856 E7.63158
G1 X401.725 Y259.887 E7.67093
G1 X401.499 Y260.584 E7.68012
G1 X400.373 Y263.516 E7.71951
G1 X400.076 Y264.183 E7.72866
G1 X398.651 Y266.981 E7.76804
G1 X398.284 Y267.617 E7.77725
G1 X396.574 Y270.25 E7.81662
G1 X396.144 Y270.842 E7.8258
G1 X394.167 Y273.284 E7.8652
G1 X393.675 Y273.83 E7.87441
G1 X391.455 Y276.049 E7.91378
G1 X390.912 Y276.538 E7.92294
G1 X388.471 Y278.515 E7.96233
G1 X387.879 Y278.945 E7.97151
G1 X385.247 Y280.655 E8.01087
G1 X384.61 Y281.023 E8.02009
G1 X381.812 Y282.448 E8.05947
G1 X381.146 Y282.744 E8.06861
G1 X378.213 Y283.871 E8.10801
G1 X377.513 Y284.099 E8.11724
G1 X374.481 Y284.911 E8.15661
G1 X373.766 Y285.063 E8.16577
G1 X370.663 Y285.555 E8.20517
G1 X369.933 Y285.631 E8.21438
G1 X366.798 Y285.795 E8.25374
G1 X366.066 Y285.795 E8.26292
G1 X362.931 Y285.631 E8.30229
G1 X362.201 Y285.555 E8.3115
G1 X359.098 Y285.063 E8.35089
G1 X358.383 Y284.911 E8.36006
G1 X355.352 Y284.099 E8.39941
G1 X354.653 Y283.872 E8.40863
G1 X351.719 Y282.745 E8.44804
G1 X351.052 Y282.448 E8.4572
G1 X348.254 Y281.023 E8.49657
G1 X347.616 Y280.654 E8.50582
G1 X344.985 Y278.944 E8.54517
G1 X344.397 Y278.517 E8.55428
G1 X341.955 Y276.541 E8.59367
G1 X341.407 Y276.048 E8.60292
G1 X339.188 Y273.828 E8.64228
G1 X338.698 Y273.284 E8.65146
G1 X336.721 Y270.842 E8.69086
G1 X336.292 Y270.251 E8.70002
G1 X334.581 Y267.618 E8.7394
G1 X334.213 Y266.981 E8.74862
G1 X332.788 Y264.183 E8.788
G1 X332.491 Y263.516 E8.79716
G1 X331.365 Y260.584 E8.83654
M204 S456
G0 F6000 X331.739 Y260.44
M204 S1425
G1 F1200 X331.525 Y259.782 E8.84522
G1 X330.713 Y256.751 E8.88457
G1 X330.569 Y256.077 E8.89321
G1 X330.077 Y252.974 E8.93261
G1 X330.005 Y252.285 E8.9413
G1 X329.841 Y249.151 E8.98065
G1 X329.841 Y248.461 E8.98931
G1 X330.005 Y245.325 E9.02869
G1 X330.077 Y244.636 E9.03738
G1 X330.569 Y241.533 E9.07677
G1 X330.713 Y240.86 E9.0854
G1 X331.525 Y237.828 E9.12477
G1 X331.739 Y237.168 E9.13347
G1 X332.865 Y234.237 E9.17284
G1 X333.145 Y233.609 E9.18147
G1 X334.57 Y230.811 E9.22084
G1 X334.916 Y230.211 E9.22953
G1 X336.627 Y227.577 E9.26892
G1 X337.032 Y227.019 E9.27756
G1 X339.008 Y224.578 E9.31695
G1 X339.472 Y224.063 E9.32564
G1 X341.692 Y221.844 E9.365
G1 X342.204 Y221.383 E9.37364
G1 X344.646 Y219.405 E9.41305
G1 X345.205 Y218.999 E9.42171
G1 X347.836 Y217.29 E9.46106
G1 X348.436 Y216.944 E9.46974
G1 X351.234 Y215.519 E9.50912
G1 X351.862 Y215.239 E9.51774
G1 X354.796 Y214.112 E9.55716
G1 X355.453 Y213.898 E9.56582
G1 X358.484 Y213.085 E9.60518
G1 X359.162 Y212.941 E9.61387
G1 X362.265 Y212.45 E9.65326
G1 X362.952 Y212.378 E9.66193
G1 X366.087 Y212.214 E9.70129
G1 X366.777 Y212.214 E9.70995
G1 X369.912 Y212.378 E9.74932
G1 X370.599 Y212.45 E9.75798
G1 X373.702 Y212.941 E9.79737
G1 X374.379 Y213.085 E9.80605
G1 X377.411 Y213.898 E9.84542
G1 X378.069 Y214.112 E9.8541
G1 X381.002 Y215.239 E9.8935
G1 X381.63 Y215.519 E9.90212
G1 X384.426 Y216.943 E9.94147
G1 X385.025 Y217.288 E9.95014
G1 X387.659 Y218.998 E9.98952
G1 X388.219 Y219.405 E9.9982
G1 X390.66 Y221.382 E10.03759
G1 X391.174 Y221.845 E10.04627
G1 X393.393 Y224.065 E10.08563
G1 X393.853 Y224.576 E10.09425
G1 X395.831 Y227.017 E10.13365
G1 X396.238 Y227.578 E10.14234
G1 X397.947 Y230.21 E10.1817
G1 X398.293 Y230.809 E10.19037
G1 X399.718 Y233.607 E10.22975
G1 X399.998 Y234.235 E10.23837
G1 X401.125 Y237.168 E10.27777
G1 X401.339 Y237.826 E10.28645
G1 X402.152 Y240.858 E10.32582
G1 X402.296 Y241.535 E10.3345
G1 X402.787 Y244.636 E10.37387
G1 X402.859 Y245.323 E10.38253
G1 X403.023 Y248.459 E10.42191
G1 X403.023 Y249.149 E10.43057
G1 X402.859 Y252.285 E10.46995
G1 X402.787 Y252.972 E10.47861
G1 X402.296 Y256.075 E10.518
G1 X402.152 Y256.753 E10.5267
G1 X401.339 Y259.784 E10.56605
G1 X401.125 Y260.44 E10.5747
G1 X399.999 Y263.372 E10.61409
G1 X399.719 Y264.001 E10.62272
G1 X398.294 Y266.799 E10.6621
G1 X397.948 Y267.399 E10.67079
G1 X396.238 Y270.032 E10.71016
G1 X395.833 Y270.59 E10.7188
G1 X393.856 Y273.032 E10.7582
G1 X393.392 Y273.547 E10.7669
G1 X391.172 Y275.766 E10.80626
G1 X390.66 Y276.227 E10.8149
G1 X388.219 Y278.204 E10.85429
G1 X387.661 Y278.609 E10.86294
G1 X385.029 Y280.319 E10.9023
G1 X384.428 Y280.666 E10.911
G1 X381.63 Y282.091 E10.95038
G1 X381.002 Y282.371 E10.959
G1 X378.069 Y283.498 E10.9984
G1 X377.409 Y283.712 E11.0071
G1 X374.377 Y284.524 E11.04647
G1 X373.704 Y284.668 E11.0551
G1 X370.601 Y285.16 E11.0945
G1 X369.912 Y285.232 E11.10318
G1 X366.777 Y285.396 E11.14255
G1 X366.087 Y285.396 E11.1512
G1 X362.952 Y285.232 E11.19057
G1 X362.263 Y285.16 E11.19926
G1 X359.16 Y284.668 E11.23866
G1 X358.486 Y284.524 E11.2473
G1 X355.455 Y283.712 E11.28665
G1 X354.796 Y283.498 E11.29534
G1 X351.862 Y282.371 E11.33475
G1 X351.234 Y282.091 E11.34338
G1 X348.436 Y280.666 E11.38275
G1 X347.834 Y280.319 E11.39147
G1 X345.203 Y278.609 E11.43082
G1 X344.648 Y278.206 E11.43942
G1 X342.206 Y276.23 E11.47881
G1 X341.69 Y275.765 E11.48752
G1 X339.471 Y273.545 E11.52689
G1 X339.009 Y273.032 E11.53554
G1 X337.032 Y270.59 E11.57494
G1 X336.628 Y270.033 E11.58357
G1 X334.917 Y267.4 E11.62295
G1 X334.57 Y266.799 E11.63165
G1 X333.145 Y264.001 E11.67103
G1 X332.865 Y263.372 E11.67966
G1 X331.739 Y260.44 E11.71905
M204 S456
G0 F6000 X332.112 Y260.297
M204 S1425
G1 F1200 X331.911 Y259.678 E11.72721
G1 X331.099 Y256.647 E11.76656
G1 X330.964 Y256.014 E11.77468
G1 X330.472 Y252.911 E11.81408
G1 X330.404 Y252.264 E11.82224
G1 X330.24 Y249.13 E11.86159
G1 X330.24 Y248.482 E11.86972
G1 X330.404 Y245.346 E11.9091
G1 X330.472 Y244.699 E11.91726
G1 X330.964 Y241.596 E11.95666
G1 X331.099 Y240.963 E11.96477
G1 X331.911 Y237.931 E12.00413
G1 X332.112 Y237.312 E12.0123
G1 X333.238 Y234.381 E12.05167
