;FLAVOR:Marlin
;TIME:481
;Filament used: 0m, 0.311873m
;Layer height: 0.4
;MINX:344.182
;MINY:239.801
;MINZ:0.2
;MAXX:411.082
;MAXY:278.401
;MAXZ:2.2
;Generated with StratosEngine 1.5.2
T1
M82 ;absolute extrusion mode
;Machine Model: Sigma D25 
;Materials used:  T1 PLA 
;Extruders used:  T1 0.4 
M141 S40 	;Set chamber temperature 
M140 S65 	;Heat build surface
M104 T1 S215	;Heat extruder 1
M190 S65 	;Wait until bed temperature reached 
M109 T1 S215	;Heat extruder 1 and wait
G21 		;metric values 
G90 		;absolute positioning 
M204 S2500 	;set default acceleration 
M205 X12.5 Y12.5 ;set default jerk 
M107 		;start with the fan off 
G28 X0 Y0 	;move X/Y to min endstops 
G28 Z0 		;move Z to min endstops 
G1 Z5 F200 	;safety Z axis movement

T1
G92 E0 		;set zero the extruded length 
G1 E10 F30
G92 E0 
G4 S2 		;stabilize hotend 
G1 E-0.5 F1000 
G92 E0

G4 P1
G4 P2
G4 P3

M141 S40
G92 E0
;LAYER_COUNT:6
;LAYER:0
M107
M204 S456
M205 X9.38 Y9.38
G1 F600 Z1
G0 F6000 X344.398 Y275.495 Z1
M204 S1425
;TYPE:SKIRT
G1 F600 Z0.2
G1 F1050 E0
G1 F1800 X344.184 Y273.972 E0.02314
G1 X344.182 Y273.859 E0.02484
G1 X344.182 Y244.618 E0.46488
G1 X344.366 Y242.811 E0.49221
G1 X344.845 Y241.759 E0.5096
G1 X345.593 Y240.878 E0.527
G1 X346.553 Y240.234 E0.54439
G1 X347.652 Y239.876 E0.56179
G1 X348.712 Y239.801 E0.57778
G1 X356.735 Y239.801 E0.69851
G1 X358.143 Y239.882 E0.71973
G1 X360.126 Y240.267 E0.75013
G1 X362.798 Y240.724 E0.79093
G1 X365.48 Y241.106 E0.83169
G1 X368.158 Y241.41 E0.87225
G1 X370.881 Y241.642 E0.91338
G1 X373.575 Y241.795 E0.95398
G1 X376.27 Y241.871 E0.99455
G1 X379.002 Y241.871 E1.03567
G1 X381.697 Y241.795 E1.07624
G1 X384.391 Y241.642 E1.11684
G1 X387.114 Y241.41 E1.15797
G1 X389.799 Y241.105 E1.19863
G1 X392.457 Y240.728 E1.23903
G1 X395.197 Y240.258 E1.28087
G1 X396.601 Y239.986 E1.30239
G1 X398.094 Y239.803 E1.32502
G1 X398.212 Y239.801 E1.3268
G1 X406.229 Y239.801 E1.44744
G1 X407.505 Y239.858 E1.46666
G1 X408.612 Y240.187 E1.48404
G1 X409.589 Y240.806 E1.50145
G1 X410.359 Y241.668 E1.51884
G1 X410.866 Y242.707 E1.53624
G1 X411.08 Y244.213 E1.55913
G1 X411.082 Y244.331 E1.56091
G1 X411.082 Y273.517 E2.00011
G1 X411.026 Y274.821 E2.01975
G1 X410.697 Y275.929 E2.03714
G1 X410.078 Y276.906 E2.05455
G1 X409.217 Y277.677 E2.07194
G1 X408.178 Y278.184 E2.08934
G1 X406.67 Y278.399 E2.11226
G1 X406.552 Y278.401 E2.11404
G1 X349.035 Y278.401 E2.97958
G1 X347.759 Y278.344 E2.9988
G1 X346.652 Y278.015 E3.01618
G1 X345.922 Y277.552 E3.02919
G0 F1620 X345.675 Y277.396
G0 X344.905 Y276.534
G0 X344.398 Y275.495
M204 S456
G0 F6000 X344.943 Y275.587
M204 S1425
G1 F1800 X344.672 Y274.293 E3.04908
G1 X344.662 Y273.859 E3.05562
G1 X344.662 Y244.625 E3.49554
G1 X344.845 Y242.886 E3.52186
G1 X345.321 Y241.909 E3.53821
G1 X346.06 Y241.111 E3.55458
G1 X346.998 Y240.561 E3.57094
G1 X348.287 Y240.291 E3.59076
G1 X348.712 Y240.281 E3.59716
G1 X356.728 Y240.281 E3.71778
G1 X358.056 Y240.354 E3.7378
G1 X360.024 Y240.736 E3.76797
G1 X362.718 Y241.197 E3.8091
G1 X365.431 Y241.584 E3.85034
G1 X368.097 Y241.886 E3.89071
G1 X370.852 Y242.121 E3.93232
G1 X373.533 Y242.273 E3.97273
G1 X376.292 Y242.351 E4.01427
G1 X378.98 Y242.351 E4.05472
G1 X381.739 Y242.273 E4.09625
G1 X384.42 Y242.121 E4.13666
G1 X387.179 Y241.886 E4.17833
G1 X389.844 Y241.584 E4.21869
G1 X392.538 Y241.201 E4.25964
G1 X395.284 Y240.73 E4.30156
G1 X396.666 Y240.462 E4.32275
G1 X398.107 Y240.282 E4.3446
G1 X406.223 Y240.281 E4.46674
G1 X407.995 Y240.463 E4.49354
G1 X408.972 Y240.939 E4.5099
G1 X409.771 Y241.677 E4.52626
G1 X410.321 Y242.615 E4.54263
G1 X410.592 Y243.906 E4.56248
G1 X410.602 Y244.331 E4.56888
G1 X410.602 Y273.511 E5.00799
G1 X410.546 Y274.781 E5.02712
G1 X410.219 Y275.818 E5.04348
G1 X409.606 Y276.716 E5.05984
G1 X408.759 Y277.399 E5.07622
G1 X407.751 Y277.807 E5.09258
G1 X406.552 Y277.921 E5.11071
G1 X349.041 Y277.921 E5.97616
G1 X347.269 Y277.739 E6.00296
G1 X346.678 Y277.451 E6.01286
G0 F1620 X346.292 Y277.263
G0 X345.493 Y276.525
G0 X344.943 Y275.587
M204 S456
G0 F6000 X345.296 Y275.151
M204 S1425
G1 F1800 X345.142 Y273.859 E6.03244
G1 X345.142 Y244.631 E6.47227
G1 X345.324 Y242.967 E6.49746
G1 X345.797 Y242.069 E6.51274
G1 X346.524 Y241.362 E6.528
G1 X347.434 Y240.915 E6.54325
G1 X348.712 Y240.761 E6.56263
G1 X356.721 Y240.761 E6.68315
G1 X358.786 Y240.978 E6.71439
G1 X359.95 Y241.211 E6.73226
G1 X362.642 Y241.671 E6.77336
G1 X365.381 Y242.061 E6.81499
G1 X368.071 Y242.367 E6.85573
G1 X370.783 Y242.598 E6.89669
G1 X373.528 Y242.753 E6.93806
G1 X376.279 Y242.831 E6.97948
G1 X378.993 Y242.831 E7.02032
G1 X381.744 Y242.753 E7.06173
G1 X384.489 Y242.598 E7.10311
G1 X387.201 Y242.367 E7.14407
G1 X389.897 Y242.061 E7.1849
G1 X392.648 Y241.67 E7.22671
G1 X395.317 Y241.212 E7.26746
G1 X396.784 Y240.928 E7.28995
G1 X398.212 Y240.761 E7.31159
G1 X406.217 Y240.761 E7.43205
G1 X407.914 Y240.942 E7.45773
G1 X408.812 Y241.414 E7.473
G1 X409.52 Y242.141 E7.48827
G1 X409.968 Y243.051 E7.50353
G1 X410.122 Y244.331 E7.52293
G1 X410.122 Y273.505 E7.96196
G1 X409.942 Y275.232 E7.98809
G1 X409.47 Y276.13 E8.00335
G1 X408.743 Y276.838 E8.01862
G1 X407.834 Y277.286 E8.03387
G1 X406.552 Y277.441 E8.05331
G1 X349.047 Y277.441 E8.91867
G1 X347.35 Y277.26 E8.94435
G1 X346.962 Y277.056 E8.95095
G0 F1620 X346.452 Y276.788
G0 X345.744 Y276.061
G0 X345.296 Y275.151
M204 S456
G1 F1800 E3.45095
;MESH:prueba_encaje_servo.stl
G0 F6000 X350.272 Y272.311
G0 X350.251 Y262.012
G0 X355.513 Y262.013
G0 X355.52 Y266.063
G0 X398.35 Y264.669
G0 X399.391 Y248.506
G0 X399.687 Y247.203
G0 X400.519 Y246.163
G0 X401.717 Y245.585
G0 X403.048 Y245.585
G0 X404.126 Y246.105
G0 X405.301 Y247.096
M204 S1425
;TYPE:WALL-INNER
G1 F1050 E8.95095
G1 F1800 X404.401 Y245.969 E8.97265
G1 X403.104 Y245.343 E8.99432
G1 X401.661 Y245.343 E9.01604
G1 X400.364 Y245.969 E9.03771
G1 X399.464 Y247.095 E9.0594
G1 X399.144 Y248.506 E9.08117
G1 X399.465 Y249.906 E9.10279
G1 X400.364 Y251.032 E9.12447
G1 X401.661 Y251.658 E9.14614
G1 X403.104 Y251.658 E9.16786
G1 X404.401 Y251.032 E9.18953
G1 X405.301 Y249.906 E9.21122
G1 X405.363 Y249.636 E9.21539
G0 F1620 X405.619 Y248.508
G0 X405.301 Y247.096
M204 S456
G0 F6000 X404.857 Y247.309
M204 S1425
;TYPE:WALL-OUTER
G1 F1800 X404.094 Y246.354 E9.23379
G1 X402.994 Y245.823 E9.25217
G1 X401.771 Y245.823 E9.27057
G1 X400.671 Y246.354 E9.28895
G1 X399.908 Y247.309 E9.30735
G1 X399.636 Y248.506 E9.32582
G1 X399.908 Y249.692 E9.34413
G1 X400.671 Y250.647 E9.36253
G1 X401.771 Y251.178 E9.38091
G1 X402.994 Y251.178 E9.39931
G1 X404.094 Y250.647 E9.41769
G1 X404.757 Y249.817 E9.43368
G0 F1620 X404.857 Y249.692
G0 X405.127 Y248.507
G0 X404.857 Y247.309
M204 S456
G0 F6000 X404.733 Y247.153
G0 X405.145 Y246.825
G0 X405.349 Y248.338
G0 X405.301 Y257.096
M204 S1425
;TYPE:WALL-INNER
G1 F1800 X404.401 Y255.969 E9.45538
G1 X403.104 Y255.343 E9.47705
G1 X401.661 Y255.343 E9.49877
G1 X400.364 Y255.969 E9.52044
G1 X399.464 Y257.095 E9.54213
G1 X399.144 Y258.506 E9.56391
G1 X399.465 Y259.906 E9.58552
G1 X400.364 Y261.032 E9.6072
G1 X401.661 Y261.658 E9.62887
G1 X403.104 Y261.658 E9.65059
G1 X404.401 Y261.032 E9.67226
G1 X405.301 Y259.906 E9.69395
G1 X405.363 Y259.636 E9.69812
G0 F1620 X405.619 Y258.508
G0 X405.301 Y257.096
M204 S456
G0 F6000 X404.857 Y257.309
M204 S1425
;TYPE:WALL-OUTER
G1 F1800 X404.094 Y256.354 E9.71652
G1 X402.994 Y255.823 E9.7349
G1 X401.771 Y255.823 E9.7533
G1 X400.671 Y256.354 E9.77168
G1 X399.908 Y257.309 E9.79008
G1 X399.636 Y258.506 E9.80855
G1 X399.908 Y259.692 E9.82686
G1 X400.671 Y260.647 E9.84526
G1 X401.771 Y261.178 E9.86364
G1 X402.994 Y261.178 E9.88204
G1 X404.094 Y260.647 E9.90042
G1 X404.757 Y259.817 E9.91641
G0 F1620 X404.857 Y259.692
G0 X405.127 Y258.507
G0 X404.857 Y257.309
M204 S456
G0 F6000 X404.733 Y257.153
G0 X405.145 Y256.825
G0 X404.246 Y256.163
G0 X403.048 Y255.585
G0 X398.361 Y255.486
G0 X398.35 Y264.669
G0 X356.914 Y264.669
G0 X355.801 Y247.096
M204 S1425
;TYPE:WALL-INNER
G1 F1800 X354.901 Y245.969 E9.93811
G1 X353.604 Y245.343 E9.95979
G1 X352.161 Y245.343 E9.9815
G1 X350.864 Y245.969 E10.00317
G1 X349.964 Y247.095 E10.02486
G1 X349.644 Y248.506 E10.04664
G1 X349.965 Y249.906 E10.06825
G1 X350.864 Y251.032 E10.08993
G1 X352.161 Y251.658 E10.11161
G1 X353.604 Y251.658 E10.13332
G1 X354.901 Y251.032 E10.15499
G1 X355.801 Y249.906 E10.17669
G1 X355.863 Y249.636 E10.18085
G0 F1620 X356.119 Y248.508
G0 X355.801 Y247.096
M204 S456
G0 F6000 X355.357 Y247.309
M204 S1425
;TYPE:WALL-OUTER
G1 F1800 X354.594 Y246.354 E10.19925
G1 X353.494 Y245.823 E10.21763
G1 X352.271 Y245.823 E10.23603
G1 X351.171 Y246.354 E10.25442
G1 X350.408 Y247.309 E10.27281
G1 X350.136 Y248.506 E10.29128
G1 X350.408 Y249.692 E10.30959
G1 X351.171 Y250.647 E10.32799
G1 X352.271 Y251.178 E10.34637
G1 X353.494 Y251.178 E10.36477
G1 X354.594 Y250.647 E10.38315
G1 X355.257 Y249.817 E10.39914
G0 F1620 X355.357 Y249.692
G0 X355.627 Y248.507
G0 X355.357 Y247.309
M204 S456
G0 F6000 X355.233 Y247.153
G0 X355.645 Y246.825
G0 X355.849 Y248.338
G0 X355.801 Y257.096
M204 S1425
;TYPE:WALL-INNER
G1 F1800 X354.901 Y255.969 E10.42084
G1 X353.604 Y255.343 E10.44252
G1 X352.161 Y255.343 E10.46423
G1 X350.864 Y255.969 E10.4859
G1 X349.964 Y257.095 E10.5076
G1 X349.644 Y258.506 E10.52937
G1 X349.965 Y259.906 E10.55098
G1 X350.864 Y261.032 E10.57267
G1 X352.161 Y261.658 E10.59434
G1 X353.604 Y261.658 E10.61605
G1 X354.901 Y261.032 E10.63773
G1 X355.801 Y259.906 E10.65942
G1 X355.863 Y259.636 E10.66359
G0 F1620 X356.119 Y258.508
G0 X355.801 Y257.096
M204 S456
G0 F6000 X355.357 Y257.309
M204 S1425
;TYPE:WALL-OUTER
G1 F1800 X354.594 Y256.354 E10.68198
G1 X353.494 Y255.823 E10.70036
G1 X352.271 Y255.823 E10.71877
G1 X351.171 Y256.354 E10.73715
G1 X350.408 Y257.309 E10.75554
G1 X350.136 Y258.506 E10.77401
G1 X350.408 Y259.692 E10.79233
G1 X351.171 Y260.647 E10.81072
G1 X352.271 Y261.178 E10.8291
G1 X353.494 Y261.178 E10.84751
G1 X354.594 Y260.647 E10.86589
G1 X355.257 Y259.817 E10.88187
G0 F1620 X355.357 Y259.692
G0 X355.627 Y258.507
G0 X355.357 Y257.309
M204 S456
G0 F6000 X355.233 Y257.153
G0 X355.645 Y256.825
G0 X356.914 Y264.669
G0 X398.35 Y264.669
G0 X398.359 Y246.538
G0 X401.381 Y245.681
G0 X403.914 Y245.201
M204 S1425
;TYPE:WALL-INNER
G1 F1800 X404.708 Y245.201 E10.89382
G1 X404.807 Y245.201 E10.89531
G1 X405.682 Y245.201 E10.90848
G1 X405.682 Y246.121 E10.92232
G1 X405.682 Y246.122 E10.92234
G1 X405.682 Y246.804 E10.9326
G1 X405.256 Y246.271 E10.93802
G1 X404.769 Y245.661 E10.94977
G1 X404.708 Y245.584 E10.95111
G1 X403.914 Y245.201 E10.957
M204 S456
G0 F6000 X401.717 Y245.585
G0 X399.082 Y246.803
M204 S1425
G1 F1800 X399.082 Y246.122 E10.96725
G1 X399.082 Y246.121 E10.96726
G1 X399.082 Y245.201 E10.98111
G1 X399.958 Y245.201 E10.99429
G1 X400.057 Y245.201 E10.99578
G1 X400.851 Y245.201 E11.00773
G1 X400.057 Y245.584 E11.01362
G1 X399.996 Y245.661 E11.01496
G1 X399.508 Y246.271 E11.02672
G1 X399.082 Y246.803 E11.03213
M204 S456
G0 F6000 X399.562 Y255.434
M204 S1425
G1 F1800 X399.562 Y255.199 E11.03567
G1 X399.562 Y254.968 E11.03915
G1 X399.562 Y252.033 E11.08331
G1 X399.562 Y251.802 E11.08679
G1 X399.562 Y251.566 E11.09034
G1 X399.75 Y251.802 E11.0918
G1 X399.958 Y251.902 E11.09438
G1 X401.441 Y252.618 E11.11916
G1 X403.324 Y252.618 E11.1475
G1 X404.806 Y251.902 E11.17227
G1 X405.015 Y251.802 E11.17575
G1 X405.202 Y251.568 E11.18026
G1 X405.202 Y251.802 E11.18074
G1 X405.202 Y252.034 E11.18333
G1 X405.202 Y254.967 E11.22747
G1 X405.202 Y255.199 E11.23096
G1 X405.202 Y255.433 E11.23448
G1 X405.015 Y255.199 E11.23594
G1 X404.806 Y255.099 E11.23852
G1 X403.324 Y254.383 E11.26329
G1 X401.441 Y254.383 E11.29162
G1 X399.958 Y255.099 E11.31641
G1 X399.75 Y255.199 E11.31898
G1 X399.562 Y255.434 E11.32044
M204 S456
G0 F6000 X399.082 Y256.803
M204 S1425
G1 F1800 X399.082 Y256.122 E11.33069
G1 X399.082 Y256.121 E11.33071
G1 X399.082 Y250.879 E11.40959
G1 X399.082 Y250.878 E11.40961
G1 X399.082 Y250.195 E11.41988
G1 X399.508 Y250.729 E11.42531
G1 X400.057 Y251.417 E11.43856
G1 X401.551 Y252.138 E11.46352
G1 X403.214 Y252.138 E11.48855
G1 X404.708 Y251.417 E11.51351
G1 X405.256 Y250.731 E11.52672
G1 X405.682 Y250.199 E11.53698
G1 X405.682 Y250.88 E11.54239
G1 X405.682 Y250.881 E11.54241
G1 X405.682 Y256.121 E11.62126
G1 X405.682 Y256.122 E11.62128
G1 X405.682 Y256.804 E11.63154
G1 X405.256 Y256.271 E11.63697
G1 X404.708 Y255.584 E11.65019
G1 X403.214 Y254.863 E11.67515
G1 X401.551 Y254.863 E11.70018
G1 X400.057 Y255.584 E11.72514
G1 X399.508 Y256.271 E11.73838
G1 X399.082 Y256.803 E11.74379
M204 S456
G0 F6000 X398.35 Y264.669
G0 X356.914 Y264.669
G0 X356.902 Y248.281
G0 X354.746 Y246.163
G0 X353.548 Y245.585
G0 X352.217 Y245.585
G0 X349.582 Y246.803
M204 S1425
G1 F1800 X349.582 Y246.122 E11.75404
G1 X349.582 Y246.121 E11.75406
G1 X349.582 Y245.201 E11.7679
G1 X350.458 Y245.201 E11.78108
G1 X350.557 Y245.201 E11.78257
G1 X351.351 Y245.201 E11.79452
G1 X350.557 Y245.584 E11.80041
G1 X350.496 Y245.661 E11.80175
G1 X350.008 Y246.271 E11.81351
G1 X349.582 Y246.803 E11.81893
M204 S456
G0 F6000 X352.217 Y245.585
G0 X353.548 Y245.585
G0 X356.182 Y246.804
M204 S1425
G1 F1800 X355.756 Y246.271 E11.82919
G1 X355.269 Y245.661 E11.84094
G1 X355.208 Y245.584 E11.84242
G1 X354.414 Y245.201 E11.85569
G1 X355.208 Y245.201 E11.86026
G1 X355.307 Y245.201 E11.86162
G1 X356.182 Y245.201 E11.87478
G1 X356.182 Y246.121 E11.88863
G1 X356.182 Y246.122 E11.88864
G1 X356.182 Y246.804 E11.89406
M204 S456
G0 F6000 X355.702 Y255.433
M204 S1425
G1 F1800 X355.515 Y255.199 E11.89857
G1 X355.306 Y255.099 E11.90206
G1 X353.824 Y254.383 E11.92683
G1 X351.941 Y254.383 E11.95516
G1 X350.458 Y255.099 E11.97994
G1 X350.25 Y255.199 E11.98342
G1 X350.062 Y255.434 E11.98795
G1 X350.062 Y255.199 E11.98842
G1 X350.062 Y254.968 E11.99101
G1 X350.062 Y252.033 E12.03517
G1 X350.062 Y251.802 E12.03865
G1 X350.062 Y251.566 E12.0422
G1 X350.25 Y251.802 E12.04366
G1 X350.458 Y251.902 E12.04624
G1 X351.941 Y252.618 E12.07102
G1 X353.824 Y252.618 E12.09936
G1 X355.306 Y251.902 E12.12413
G1 X355.515 Y251.802 E12.12761
G1 X355.702 Y251.568 E12.13212
G1 X355.702 Y251.802 E12.1326
G1 X355.702 Y252.034 E12.13519
G1 X355.702 Y254.967 E12.17933
G1 X355.702 Y255.199 E12.18156
G1 X355.702 Y255.433 E12.18203
M204 S456
G0 F6000 X356.182 Y256.804
M204 S1425
G1 F1800 X355.756 Y256.271 E12.1923
G1 X355.208 Y255.584 E12.20552
G1 X353.714 Y254.863 E12.23049
G1 X352.051 Y254.863 E12.25551
G1 X350.557 Y255.584 E12.28048
G1 X350.008 Y256.271 E12.29371
G1 X349.582 Y256.803 E12.30397
G1 X349.582 Y256.122 E12.30938
G1 X349.582 Y256.121 E12.3094
G1 X349.582 Y250.879 E12.38828
G1 X349.582 Y250.878 E12.38829
G1 X349.582 Y250.195 E12.39857
G1 X350.008 Y250.729 E12.404
G1 X350.557 Y251.417 E12.41725
G1 X352.051 Y252.138 E12.44221
G1 X353.714 Y252.138 E12.46724
G1 X355.208 Y251.417 E12.4922
G1 X355.756 Y250.731 E12.50541
G1 X356.182 Y250.199 E12.51567
G1 X356.182 Y250.88 E12.52108
G1 X356.182 Y250.881 E12.5211
G1 X356.182 Y256.121 E12.59995
G1 X356.182 Y256.122 E12.59997
G1 X356.182 Y256.804 E12.60539
M204 S456
G0 F6000 X355.702 Y265.881
M204 S1425
G1 F1800 X399.562 Y265.881 E13.26541
G1 X399.562 Y262.033 E13.32332
G1 X399.562 Y261.802 E13.3268
G1 X399.562 Y261.566 E13.33035
G1 X399.75 Y261.802 E13.33181
G1 X399.958 Y261.902 E13.33439
G1 X401.441 Y262.618 E13.35917
G1 X403.324 Y262.618 E13.3875
G1 X404.806 Y261.902 E13.41227
G1 X405.015 Y261.802 E13.41576
G1 X405.202 Y261.568 E13.42027
G1 X405.202 Y261.802 E13.42074
G1 X405.202 Y262.034 E13.42333
G1 X405.202 Y272.521 E13.58115
G1 X350.062 Y272.521 E14.41092
G1 X350.062 Y262.033 E14.56875
G1 X350.062 Y261.802 E14.57222
G1 X350.062 Y261.566 E14.57577
G1 X350.25 Y261.802 E14.57724
G1 X350.458 Y261.902 E14.57981
G1 X351.941 Y262.618 E14.6046
G1 X353.824 Y262.618 E14.63293
G1 X355.306 Y261.902 E14.6577
G1 X355.515 Y261.802 E14.66119
G1 X355.702 Y261.568 E14.66569
G1 X355.702 Y261.802 E14.66617
G1 X355.702 Y262.034 E14.66876
G1 X355.702 Y265.881 E14.72665
M204 S456
G0 F6000 X356.182 Y265.401
M204 S1425
G1 F1800 X399.082 Y265.401 E15.37223
G1 X399.082 Y260.879 E15.44028
G1 X399.082 Y260.878 E15.4403
G1 X399.082 Y260.195 E15.45057
